assets/svg/app/notification.svg

<svg width="16" height="16" viewBox="0 0 16 16" fill="none" xmlns="http://www.w3.org/2000/svg">
<path d="M8.00089 14.6667C8.77432 14.6667 9.40713 14.0513 9.40713 13.2991H6.59465C6.59465 14.0513 7.22042 14.6667 8.00089 14.6667ZM12.2196 10.5641V7.14529C12.2196 5.04615 11.0665 3.28888 9.05557 2.82393V2.35897C9.05557 1.79145 8.58448 1.33333 8.00089 1.33333C7.4173 1.33333 6.94621 1.79145 6.94621 2.35897V2.82393C4.92825 3.28888 3.78217 5.03931 3.78217 7.14529V10.5641L2.87515 11.4461C2.43218 11.8769 2.74155 12.6154 3.36733 12.6154H12.6274C13.2532 12.6154 13.5696 11.8769 13.1266 11.4461L12.2196 10.5641Z" fill="currentColor"/>
</svg>

<svg width="16" height="16" fill="none" xmlns="http://www.w3.org/2000/svg">
    <path d="M8 14.667c.774 0 1.407-.616 1.407-1.368H6.595c0 .752.625 1.368 1.406 1.368Zm4.22-4.103V7.145c0-2.099-1.154-3.856-3.164-4.321v-.465c0-.568-.472-1.026-1.055-1.026-.584 0-1.055.458-1.055 1.026v.465c-2.018.465-3.164 2.215-3.164 4.321v3.42l-.907.881c-.443.43-.133 1.17.492 1.17h9.26c.626 0 .943-.74.5-1.17l-.907-.882Z" fill="currentColor"/>
</svg>
